icons/tokens/0x46AFc2dfBd1ea0c0760CAD8262A5838e803A37e5/logo.svg

<svg width="32" height="32" viewBox="0 0 32 32" fill="none" xmlns="http://www.w3.org/2000/svg">
<path fill-rule="evenodd" clip-rule="evenodd" d="M32 15.9999C32 13.9059 31.5834 11.8118 30.7821 9.87706C29.9805 7.94234 28.7942 6.16698 27.3136 4.68634C25.833 3.20538 24.0576 2.01946 22.1229 1.21786C20.1882 0.416579 18.0941 -6.10352e-05 16 -6.10352e-05C13.9059 -6.10352e-05 11.8115 0.416579 9.8768 1.21786C7.94208 2.01946 6.16704 3.20538 4.68608 4.68634C3.20544 6.16698 2.0192 7.94234 1.21792 9.87706C0.41632 11.8118 0 13.9059 0 15.9999C0 18.094 0.41632 20.1881 1.21792 22.1228C2.0192 24.0575 3.20544 25.8329 4.68608 27.3139C6.16704 28.7945 7.94208 29.9807 9.8768 30.782C11.8115 31.5833 13.9059 31.9999 16 31.9999C18.0941 31.9999 20.1882 31.5833 22.1229 30.782C24.0576 29.9807 25.833 28.7945 27.3136 27.3139C28.7942 25.8329 29.9805 24.0575 30.7821 22.1228C31.5834 20.1881 32 18.094 32 15.9999Z" fill="white"/>
<path fill-rule="evenodd" clip-rule="evenodd" d="M11.8547 3.38361C13.3453 2.89369 14.9382 2.66969 16.5162 2.73017C18.0944 2.79065 19.6579 3.13593 21.113 3.74393C22.5683 4.35193 23.9152 5.22297 25.0675 6.29753C26.5917 7.71929 27.775 9.49753 28.4848 11.4867C29.1949 13.4761 29.4314 15.6764 29.1574 17.7711C28.8838 19.8659 28.0998 21.8553 26.9139 23.566C25.728 25.2767 24.1398 26.7084 22.2746 27.7004C20.4093 28.6921 18.2662 29.2438 16.1539 29.2758C14.0416 29.3078 11.9597 28.8204 10.095 27.895C8.23073 26.9695 6.58337 25.6063 5.33249 23.9036C4.08161 22.2009 3.22721 20.1587 2.88801 18.0748C2.54881 15.9907 2.72481 13.8646 3.37473 11.8812C3.86593 10.3817 4.62817 8.96409 5.6048 7.73561H4.12033V5.28185H9.93696V10.7135H7.48321V9.22937C6.68321 10.2355 6.05857 11.3967 5.65633 12.6255C5.12417 14.2511 4.98081 15.9951 5.25633 17.6969C5.59873 19.8137 6.58881 21.8649 8.06657 23.4457C9.83425 25.3363 12.2995 26.5542 14.8659 26.8207C17.432 27.0873 20.0992 26.4028 22.2173 24.9286C24.3354 23.4543 25.905 21.1903 26.5421 18.6899C27.1792 16.1894 26.8838 13.4524 25.735 11.142C24.5862 8.83161 22.5837 6.94841 20.1891 5.95897C17.7946 4.96921 15.0077 4.87385 12.6038 5.66361L11.8547 3.38361Z" fill="url(#paint0_linear)"/>
<path fill-rule="evenodd" clip-rule="evenodd" d="M22.8106 18.9998C22.8106 16.5254 20.8007 14.5155 18.3263 14.5155C15.852 14.5155 13.8419 16.5254 13.8419 18.9998C13.8419 21.4742 15.852 23.4842 18.3263 23.4842C20.8007 23.4842 22.8106 21.4742 22.8106 18.9998Z" fill="black"/>
<path fill-rule="evenodd" clip-rule="evenodd" d="M20.3036 18.361C20.3926 17.764 19.9386 17.4435 19.3174 17.2288L19.5189 16.4208L19.0269 16.2983L18.8304 17.0852C18.7012 17.053 18.5683 17.0224 18.4363 16.9924L18.6334 16.2006L18.1422 16.0778L17.9399 16.886L17.889 16.8742C17.7999 16.8535 17.712 16.8331 17.626 16.8122L17.6269 16.8091L16.9478 16.6399L16.8172 17.1656C16.8356 17.1697 17.1822 17.2495 17.1741 17.2545C17.3733 17.3043 17.4101 17.4363 17.4041 17.5407L16.8515 19.7553C16.8273 19.8158 16.7653 19.9066 16.6259 19.8723C16.6308 19.8788 16.3447 19.8032 16.2802 19.7862L16.2682 19.783L16.0239 20.3459L16.6645 20.5058C16.7326 20.5228 16.7998 20.5404 16.8663 20.5578C16.9163 20.5709 16.9659 20.5838 17.015 20.5963L16.8114 21.4138L17.3032 21.5364L17.5047 20.7276C17.639 20.7641 17.7692 20.7976 17.8967 20.829L17.6961 21.6343L18.1881 21.7569L18.3919 20.9408C19.2304 21.0999 19.8619 21.0359 20.1277 20.2765C20.3416 19.6654 20.1165 19.3131 19.6751 19.0831C19.9969 19.0093 20.2385 18.7977 20.3036 18.361ZM19.1794 19.9371C19.0396 20.4976 18.1643 20.2669 17.7621 20.161C17.7254 20.1513 17.6926 20.1426 17.6647 20.1357L17.9347 19.0523C17.9686 19.0608 18.0101 19.0701 18.0571 19.0806C18.4728 19.174 19.3216 19.3646 19.1794 19.9371ZM18.1394 18.5772C18.4739 18.6666 19.2042 18.8616 19.3313 18.3524C19.4612 17.8305 18.7511 17.6734 18.4045 17.5966C18.3657 17.5881 18.3314 17.5805 18.3034 17.5735L18.0588 18.5561C18.0819 18.5619 18.109 18.5691 18.1394 18.5772Z" fill="white"/>
<path fill-rule="evenodd" clip-rule="evenodd" d="M13.7814 10.2409C13.4251 11.0152 12.837 11.9192 12.1261 12.8523C11.4151 13.7853 10.5812 14.747 10.0863 15.7658C9.59139 16.7845 9.43558 17.8601 9.47443 18.752C9.51349 19.6437 9.7472 20.3517 10.2256 21.0638C10.7042 21.7761 11.4274 22.4925 12.2578 22.9091C13.0883 23.3257 14.0256 23.4423 14.5114 23.4826C14.9973 23.5229 15.0316 23.4867 15.0494 23.4404C15.0671 23.3943 15.0684 23.3377 14.9342 23.2104C14.8001 23.0833 14.5307 22.8854 14.2033 22.5566C13.876 22.228 13.4906 21.7684 13.2149 21.0729C12.9393 20.3773 12.7731 19.4455 12.8271 18.6375C12.881 17.8298 13.155 17.1462 13.3745 16.6062C13.5939 16.0664 13.7588 15.6705 13.8969 15.2345C14.0349 14.7985 14.1461 14.3223 14.2763 13.5763C14.4067 12.8301 14.5563 11.8141 14.6249 10.9616C14.6935 10.1092 14.6811 9.42026 14.6675 8.99518C14.6538 8.57032 14.6387 8.40893 14.6241 8.28825C14.6092 8.16777 14.5947 8.08759 14.5685 8.04254C14.5424 7.99749 14.5048 7.98757 14.4724 8.01588C14.4402 8.0442 14.4131 8.11074 14.3375 8.46638C14.2618 8.82201 14.1374 9.46655 13.7814 10.2409Z" fill="url(#paint1_linear)"/>
<path fill-rule="evenodd" clip-rule="evenodd" d="M16.3072 11.881C16.505 12.1699 16.7548 12.4586 16.9935 12.7028C17.2324 12.9471 17.4599 13.1471 17.5905 13.2771C17.7213 13.4069 17.755 13.4668 17.7386 13.5005C17.7225 13.5342 17.6564 13.542 17.5053 13.5623C17.3543 13.5827 17.1185 13.6158 16.8102 13.7045C16.5021 13.7931 16.1214 13.9373 15.8139 14.0944C15.5062 14.2517 15.2717 14.4219 15.1258 14.5292C14.9799 14.6366 14.9229 14.6809 14.883 14.6945C14.8429 14.7079 14.82 14.6904 14.8119 14.6457C14.8038 14.6009 14.8107 14.529 14.8537 14.3449C14.8966 14.1607 14.976 13.8646 15.0458 13.454C15.1159 13.0436 15.1762 12.5185 15.2143 12.0657C15.2523 11.613 15.2678 11.2325 15.2926 11.0013C15.3172 10.7699 15.3511 10.6878 15.3994 10.6378C15.448 10.5876 15.511 10.5696 15.5662 10.5882C15.6213 10.6068 15.6687 10.6618 15.7092 10.7389C15.7497 10.8159 15.7838 10.9149 15.8737 11.109C15.9636 11.303 16.1092 11.5921 16.3072 11.881Z" fill="url(#paint2_linear)"/>
<path fill-rule="evenodd" clip-rule="evenodd" d="M12.3611 22.9592C13.1649 23.3353 14.0457 23.4439 14.5115 23.4826C14.9973 23.5229 15.0316 23.4867 15.0494 23.4404C15.0671 23.3944 15.0684 23.3377 14.9343 23.2104C14.8001 23.0834 14.5307 22.8854 14.2033 22.5566C13.876 22.228 13.4906 21.7685 13.2149 21.0729C12.9393 20.3773 12.7731 19.4455 12.8271 18.6375C12.881 17.8298 13.155 17.1462 13.3745 16.6062C13.5939 16.0664 13.7588 15.6705 13.8969 15.2345C14.0349 14.7985 14.1461 14.3223 14.2763 13.5763C14.4067 12.8301 14.5563 11.8141 14.6249 10.9616C14.6935 10.1092 14.6811 9.42026 14.6675 8.99519C14.6578 8.6939 14.6474 8.52507 14.6369 8.40935C14.678 9.69882 14.3639 10.793 13.9967 11.7597C13.6293 12.7264 13.2087 13.5658 12.7415 14.3637C12.2741 15.1615 11.7599 15.9181 11.3543 16.6703C10.9489 17.4225 10.6519 18.1703 10.5626 18.9314C10.4732 19.6927 10.5916 20.4674 10.8594 21.1746C11.1272 21.8817 11.5446 22.5213 12.3611 22.9592Z" fill="url(#paint3_linear)"/>
<path fill-rule="evenodd" clip-rule="evenodd" d="M15.3236 10.8015C15.28 11.6849 15.4798 13.1874 16.3921 13.8433C16.1938 13.9171 15.9917 14.0037 15.8139 14.0944C15.5062 14.2517 15.2717 14.4219 15.1258 14.5292C14.9799 14.6366 14.9229 14.6809 14.883 14.6945C14.8429 14.7079 14.82 14.6904 14.8119 14.6457C14.8038 14.6009 14.8107 14.529 14.8537 14.3449C14.8966 14.1607 14.976 13.8646 15.0458 13.454C15.1159 13.0436 15.1762 12.5185 15.2143 12.0657C15.2523 11.613 15.2678 11.2325 15.2926 11.0013C15.3017 10.9166 15.3118 10.8519 15.3236 10.8015Z" fill="url(#paint4_linear)"/>
<defs>
<linearGradient id="paint0_linear" x1="2.04343" y1="13.297" x2="15.2222" y2="29.5764" gradientUnits="userSpaceOnUse">
<stop stop-color="#004CFF"/>
<stop offset="0.252131" stop-color="#00E0FB"/>
<stop offset="0.505709" stop-color="#87FF70"/>
<stop offset="0.755054" stop-color="#F8F500"/>
<stop offset="1" stop-color="#FF1A00"/>
</linearGradient>
<linearGradient id="paint1_linear" x1="9.46875" y1="8" x2="9.46875" y2="23.5" gradientUnits="userSpaceOnUse">
<stop offset="8.19493e-05" stop-color="#D1D1D1"/>
<stop offset="1" stop-color="#585858"/>
</linearGradient>
<linearGradient id="paint2_linear" x1="14.809" y1="10.5811" x2="14.809" y2="14.6989" gradientUnits="userSpaceOnUse">
<stop offset="8.19493e-05" stop-color="#D1D1D1"/>
<stop offset="1" stop-color="#585858"/>
</linearGradient>
<linearGradient id="paint3_linear" x1="10.5331" y1="8.40935" x2="10.5331" y2="23.5" gradientUnits="userSpaceOnUse">
<stop offset="8.19493e-05" stop-color="#9B9B9B"/>
<stop offset="1"/>
</linearGradient>
<linearGradient id="paint4_linear" x1="14.809" y1="10.8015" x2="14.809" y2="14.6989" gradientUnits="userSpaceOnUse">
<stop offset="8.19493e-05" stop-color="#9B9B9B"/>
<stop offset="1"/>
</linearGradient>
</defs>
</svg>

<svg width="32" height="32" fill="none" xmlns="http://www.w3.org/2000/svg"><path fill-rule="evenodd" clip-rule="evenodd" d="M32 16c0-2.094-.417-4.188-1.218-6.123a16.058 16.058 0 00-3.468-5.19 16.051 16.051 0 00-5.191-3.47A16.054 16.054 0 0016 0c-2.094 0-4.188.417-6.123 1.218a16.055 16.055 0 00-5.19 3.468 16.05 16.05 0 00-3.47 5.191A16.049 16.049 0 000 16c0 2.094.416 4.188 1.218 6.123a16.056 16.056 0 003.468 5.19 16.055 16.055 0 005.19 3.469A16.056 16.056 0 0016 32c2.094 0 4.188-.417 6.123-1.218a16.051 16.051 0 005.19-3.468 16.063 16.063 0 003.47-5.191A16.054 16.054 0 0032 16z" fill="#fff"/><path fill-rule="evenodd" clip-rule="evenodd" d="M11.855 3.384a13.267 13.267 0 0113.213 2.914 13.155 13.155 0 013.417 5.189c.71 1.99.946 4.19.672 6.284a13.194 13.194 0 01-2.243 5.795 13.207 13.207 0 01-4.64 4.134 13.622 13.622 0 01-6.12 1.576 13.207 13.207 0 01-6.059-1.381 13.19 13.19 0 01-4.763-3.991 13.662 13.662 0 01-2.444-5.83 13.13 13.13 0 01.487-6.193 13.392 13.392 0 012.23-4.145H4.12V5.282h5.817v5.431H7.483V9.23a10.961 10.961 0 00-1.827 3.397 10.787 10.787 0 00-.4 5.07 11.107 11.107 0 002.81 5.75 10.952 10.952 0 006.8 3.375 11.023 11.023 0 007.351-1.892 10.999 10.999 0 004.325-6.24c.637-2.5.342-5.237-.807-7.547a10.919 10.919 0 00-5.546-5.183c-2.394-.99-5.181-1.085-7.585-.295l-.75-2.28z" fill="url(#paint0_linear)"/><path fill-rule="evenodd" clip-rule="evenodd" d="M22.81 19a4.487 4.487 0 00-4.484-4.485A4.487 4.487 0 0013.842 19a4.487 4.487 0 004.484 4.484A4.487 4.487 0 0022.811 19z" fill="#000"/><path fill-rule="evenodd" clip-rule="evenodd" d="M20.304 18.361c.089-.597-.365-.918-.987-1.132l.202-.808-.492-.123-.197.787c-.129-.032-.262-.063-.394-.093l.197-.791-.49-.123-.203.808-.051-.012c-.09-.02-.177-.04-.263-.062v-.003l-.678-.17-.13.527c.018.004.364.084.356.088.2.05.236.182.23.287l-.552 2.214c-.025.06-.087.152-.226.117.005.007-.281-.069-.346-.086l-.012-.003-.244.563.64.16.202.052.149.038-.204.818.492.122.202-.808c.134.036.264.07.392.101l-.2.805.491.123.204-.816c.838.159 1.47.095 1.736-.665.214-.61-.012-.963-.453-1.193.322-.074.563-.285.629-.722zm-1.125 1.576c-.14.56-1.015.33-1.417.224l-.097-.025.27-1.084.122.029c.416.093 1.265.284 1.122.856zm-1.04-1.36c.335.09 1.065.285 1.192-.225.13-.521-.58-.679-.927-.755a3.777 3.777 0 01-.1-.024l-.245.983.08.021z" fill="#fff"/><path fill-rule="evenodd" clip-rule="evenodd" d="M13.781 10.24c-.356.775-.944 1.68-1.655 2.612-.71.933-1.545 1.895-2.04 2.914a6.3 6.3 0 00-.612 2.986c.04.892.273 1.6.752 2.312.478.712 1.201 1.428 2.032 1.845.83.417 1.768.533 2.253.574.486.04.52.004.538-.043.018-.046.02-.102-.115-.23-.134-.127-.403-.325-.73-.653a4.29 4.29 0 01-.99-1.484 5.97 5.97 0 01-.387-2.436c.054-.807.328-1.49.547-2.03.22-.54.385-.936.523-1.372.138-.436.25-.913.38-1.659s.28-1.762.348-2.614c.069-.853.056-1.542.043-1.967a7.679 7.679 0 00-.044-.707.736.736 0 00-.056-.245c-.026-.046-.063-.055-.096-.027-.032.028-.059.095-.134.45-.076.356-.2 1-.557 1.775z" fill="url(#paint1_linear)"/><path fill-rule="evenodd" clip-rule="evenodd" d="M16.307 11.881c.198.289.448.578.687.822.238.244.466.444.596.574.131.13.165.19.149.224-.017.033-.083.041-.234.061a4.6 4.6 0 00-.695.143 5.971 5.971 0 00-.996.39 4.896 4.896 0 00-.688.434c-.146.108-.203.152-.243.165-.04.014-.063-.004-.071-.048-.008-.045-.001-.117.042-.301.043-.184.122-.48.192-.891.07-.41.13-.936.168-1.388.038-.453.054-.834.079-1.065.024-.231.058-.313.106-.363.049-.05.112-.068.167-.05.055.019.103.074.143.15.04.078.075.177.165.371.09.194.235.483.433.772z" fill="url(#paint2_linear)"/><path fill-rule="evenodd" clip-rule="evenodd" d="M12.361 22.96c.804.375 1.685.484 2.15.523.486.04.52.004.538-.043.018-.046.02-.102-.115-.23-.134-.127-.403-.325-.73-.653a4.289 4.289 0 01-.99-1.484 5.97 5.97 0 01-.387-2.436c.054-.807.328-1.49.547-2.03.22-.54.385-.936.523-1.372.138-.436.25-.913.38-1.659s.28-1.762.348-2.614a17.224 17.224 0 00.012-2.553c.041 1.29-.273 2.384-.64 3.35a17.085 17.085 0 01-1.255 2.605c-.468.797-.982 1.554-1.388 2.306-.405.752-.702 1.5-.791 2.261-.09.762.029 1.536.296 2.244.268.707.686 1.346 1.502 1.784z" fill="url(#paint3_linear)"/><path fill-rule="evenodd" clip-rule="evenodd" d="M15.324 10.802c-.044.883.156 2.385 1.068 3.041a5.6 5.6 0 00-.578.251 4.896 4.896 0 00-.688.435c-.146.108-.203.152-.243.165-.04.014-.063-.004-.071-.048-.008-.045-.001-.117.042-.301.043-.184.122-.48.192-.891.07-.41.13-.936.168-1.388.038-.453.054-.834.079-1.065.009-.084.019-.15.03-.2z" fill="url(#paint4_linear)"/><defs><linearGradient id="paint0_linear" x1="2.043" y1="13.297" x2="15.222" y2="29.576" gradientUnits="userSpaceOnUse"><stop stop-color="#004CFF"/><stop offset=".252" stop-color="#00E0FB"/><stop offset=".506" stop-color="#87FF70"/><stop offset=".755" stop-color="#F8F500"/><stop offset="1" stop-color="#FF1A00"/></linearGradient><linearGradient id="paint1_linear" x1="9.469" y1="8" x2="9.469" y2="23.5" gradientUnits="userSpaceOnUse"><stop offset="0" stop-color="#D1D1D1"/><stop offset="1" stop-color="#585858"/></linearGradient><linearGradient id="paint2_linear" x1="14.809" y1="10.581" x2="14.809" y2="14.699" gradientUnits="userSpaceOnUse"><stop offset="0" stop-color="#D1D1D1"/><stop offset="1" stop-color="#585858"/></linearGradient><linearGradient id="paint3_linear" x1="10.533" y1="8.409" x2="10.533" y2="23.5" gradientUnits="userSpaceOnUse"><stop offset="0" stop-color="#9B9B9B"/><stop offset="1"/></linearGradient><linearGradient id="paint4_linear" x1="14.809" y1="10.802" x2="14.809" y2="14.699" gradientUnits="userSpaceOnUse"><stop offset="0" stop-color="#9B9B9B"/><stop offset="1"/></linearGradient></defs></svg>
